X:064
T: Kitty Tirrell
N: O'Farrell's Pocket Companion v.1 (Sky ed. p.46)
N: Close relative of "Eamonn an Chnoic"
M: 3/4
L: 1/8
R: waltz
Q: 100
K: G
GE||D2E2G2|G3AB2|g2f2g2|e4 gf|
e>dcBAG|G4A2|B2 cBAG|E4 D2|
D2E2G2|G3AB2|g2f2g2|e4 g>f|
edcBAG|G4A2|{GA}B2G2G2|G4 :|
(3def| g2f2g2|e4 fg|a2 gfed|d4 gf|
edcBAG|G4A2|B2 cBAG|E4 DE|
D2E2G2|G3AB2|g2 {a}bagf|e4 g>f|
e>dcBAG|G4A2|B2G2G2|{A}G4 :|
